X: 176
T: 177. Ach bleib bei uns, Herr Jesu Christ
N: Derived from chor177.krn
C: Johann Sebastian Bach
%%abc-version 2.0
%%abcx-abcm2ps-target-version 5.9.1 (29 Sep 2008)
%%abc-creator hum2abc beta
%%abcx-conversion-date 2019/03/11 17:28:18
%%abc-edited-by Craig Stuart Sapp
%%humdrum-veritas 1106157142
%%humdrum-veritas-data 188623828
%%
%%barnumbers 0
L: 1/4
M: C
%%staves [1 2 3 4]
V: 1 clef=treble
V: 2 clef=treble
V: 3 clef=treble-8
V: 4 clef=bass
K: A
[V:1] c [I:setbarnb 1]| 
[V:2] A | 
[V:3] e | 
[V:4] A,, | 
[V:1] c/d/ecA | 
[V:2] ABAA | 
[V:3] eeee/d/ | 
[V:4] A,G,A,F, | 
[V:1] Bc!fermata!dc | 
[V:2] =G/F/E!fermata!FE | 
[V:3] dA!fermata!AA | 
[V:4] =G,A,!fermata!D,A,, | 
[V:1] BAA3/B/ | 
[V:2] E/D/CF2 | 
[V:3] GAd2 | 
[V:4] E,F,/E,/ D,/E,/F,/G,/ | 
[V:1] ccB/A/B | 
[V:2] EEE3/D/ | 
[V:3] c/B/AAG | 
[V:4] A,C,/D,/E,E, | 
[V:1] !fermata!A3c | 
[V:2] !fermata!C3A | 
[V:3] !fermata!E3e | 
[V:4] !fermata!A,,3A,, | 
[V:1] BcAF | 
[V:2] GGF/=E/^D | 
[V:3] e/d/ccB | 
[V:4] E,^E,F,B,/A,/ | 
[V:1] GA!fermata!Bc | 
[V:2] E3/^D/!fermata!E^E | 
[V:3] BA!fermata!GG | 
[V:4] G,F,!fermata!=E,C, | 
[V:1] AAA3/B/ | 
[V:2] CFEF/G/ | 
[V:3] A=dc/d/c/B/ | 
[V:4] F,/E,/F,/G,/ A,/B,/A,/G,/ | 
[V:1] ccB/A/B | 
[V:2] AEE3/D/ | 
[V:3] AAAG | 
[V:4] F,/C,/D,E,E, | 
[V:1] !fermata!A3 |]  
[V:2] !fermata!C3 |]  
[V:3] !fermata!E3 |]  
[V:4] !fermata!A,,3 |]  



